X:1
T:Title
%%score { 1 | 2 }
L:1/8
M:4/4
K:G
V:1 treble nm="Grand Piano"
V:2 bass 
V:1
 z4 z2[Q:1/4=100] [B,D]2 | [DB]2 [CA]>[B,G] [B,D]2 [G,B,]>[A,C] | [B,D]6 G2 | F2 F>G A2 D>c | %4
[M:3/4] B6 |[M:1/4] D2 |[M:4/4] [DB]2 [CA]>[B,G] [B,D]2 [DG]>[DF] | [CE]6 [Ec]2 | B2 A>G A2 E>F | %9
 [B,G]6 z2 | [FA]3 [FA] [Fd]2 [FA]2 | B3 B d2 B2 | e2 d2 c2 B2 | A2 G2 [FA]4 | B3 A G2 D2 | %15
 E2 G2 c2 B2 | B3 c d2 G2 |[M:3/4] A2 B2 [B,DG]2 |] %18
V:2
 z4 z2 [G,,G,]2 | [G,,G,]2 [G,,D,]>[G,,D,] [G,,G,]2 [G,,D,]>[G,,D,] | [G,,G,]6 [G,B,D]2 | %3
 [D,A,D]2 [D,A,D]>[D,B,D] [D,CD]2 [F,A,]>[F,A,D] |[M:3/4] [G,D]6 |[M:1/4] D,2 | %6
[M:4/4] [G,,G,]2 [G,,D,]>[G,,D,] [G,,G,]2 [B,,G,]>[B,,G,] | [C,G,]6 [C,G,]2 | %8
 [D,G,D]2 [D,CD]>[D,B,D] [D,CD]2 [D,A,C]>[D,C] | [G,,D,]6 z2 | [D,D]3 [D,D] [D,A,]2 [D,D]2 | %11
 [G,DG]3 [G,DG] [G,B,G]2 [G,DG]2 | [CG]2 [B,DG]2 [A,DF]2 [G,DG]2 | [F,D]2 [E,^CE]2 [D,D]4 | %14
 [G,DG]3 [G,CD][K:bass] [G,B,D]2 [B,,G,]2 | [C,G,C]2 [E,G,C]2 [G,E]2 [G,D]2 | %16
 [G,D]3 [G,A,D] [G,B,D]2 [G,B,D]2 |[M:3/4] [D,CD]2 [D,D]2 G,,2 |] %18

